X: 21462
T: Kevin McHugh's
R: jig
M: 6/8
K: Fmajor
A2 c cdc|AGA F2A|GFD CDF|ABA G2 B|
A2 c cdc|AGA F2A|GFD CDF|GAG F2 B:|
A2F FGA|BAB c2B|A2F FGA|BAB c2B|
A2F FGA|BAB c2B|GFD CDF|GAG F2 B:|

